svg/black/ok.svg

<svg width="32" height="32" viewBox="0 0 32 32" version="1.1" xmlns="http://www.w3.org/2000/svg" xmlns:xlink="http://www.w3.org/1999/xlink"><title>svg/black/ok</title><desc>Created with Sketch.</desc><g id="black/ok" stroke="none" stroke-width="1" fill="none" fill-rule="evenodd"><path d="M16,32 C7.163444,32 0,24.836556 0,16 C0,7.163444 7.163444,0 16,0 C24.836556,0 32,7.163444 32,16 C32,24.836556 24.836556,32 16,32 Z M27.9858005,14.6685847 C27.4762877,14.56 26.9695592,14.4180046 26.454478,14.3038515 C25.9783759,14.1924826 25.505058,14.0560557 25.0261717,13.9530394 C24.8897448,13.922413 24.7533179,13.8667285 24.6085383,13.8778654 C24.5110905,13.9029234 24.4331323,13.9753132 24.3468213,14.0282135 L19.6414849,16.9794896 C19.5496056,17.0407425 19.4605104,17.1019954 19.3574942,17.1381903 C19.4131787,16.9238051 19.5189791,16.7289095 19.5997216,16.5256613 L20.3208353,14.7938747 C20.55471,14.2481671 20.7746636,13.6941067 21.0141067,13.1483991 C21.0363805,13.0927146 21.0642227,13.0342459 21.0475174,12.9757773 C20.7412529,12.8838979 20.4238515,12.822645 20.1148028,12.7419026 C19.5189791,12.597123 18.9231555,12.4439907 18.3273318,12.3019954 C18.2076102,12.2741531 18.0906729,12.2240371 17.9681671,12.2156845 C17.9437221,12.234657 17.9245501,12.2595806 17.9124826,12.2880742 L14.3793039,20.7576798 C14.3577596,20.8089362 14.3455037,20.8636161 14.343109,20.9191647 C14.5380046,20.9859861 14.7440371,21.0193968 14.9417169,21.072297 C15.6433411,21.2421346 16.342181,21.4175406 17.0410209,21.5901624 C17.1718794,21.6207889 17.2999536,21.6736891 17.4363805,21.6736891 C17.5115545,21.5734571 17.542181,21.4481671 17.592297,21.3340139 C17.9375406,20.5182367 18.2716473,19.696891 18.6196752,18.8811137 C18.6781439,18.7446868 18.7199072,18.6026914 18.792297,18.4774014 C18.9148028,18.4606961 19.0289559,18.5135963 19.1458933,18.5386543 C19.9644548,18.7419026 20.7858005,18.9367981 21.6015777,19.1456148 C21.8243155,19.2068677 22.0748956,19.2876102 22.2001856,19.5019954 C22.3004176,19.6523434 22.2586543,19.8444548 22.1890487,19.997587 L21.2619026,22.2193968 C21.2145708,22.3419026 21.1366125,22.4588399 21.1310441,22.5952668 C21.3482135,22.6676566 21.5737355,22.7038515 21.7936891,22.7651044 C22.4702552,22.934942 23.1496056,23.0992111 23.8261717,23.2662645 C23.9598144,23.296891 24.0906729,23.347007 24.2270998,23.3497912 C24.260302,23.307331 24.2874734,23.2604836 24.3078422,23.21058 C24.7226914,22.2054756 25.143109,21.2059397 25.5607425,20.2036195 C25.6609745,19.9530394 25.7723434,19.7052436 25.8252436,19.4407425 C25.9226109,19.0873315 25.8786775,18.7099038 25.7027378,18.3883063 C25.5189791,18.0709049 25.1848724,17.8815777 24.8591183,17.7367981 C24.505522,17.5753132 24.1212993,17.5001392 23.7482135,17.3999072 C23.7613391,17.369699 23.7825318,17.3436898 23.8094664,17.3247332 C25.2015777,16.4588399 26.5992575,15.6012993 27.9858005,14.7326218 L27.9858005,14.6685847 Z M16.8823202,12.9702088 C16.8560529,12.6013929 16.6581037,12.2663225 16.3477494,12.0653364 C16.0748956,11.8676566 15.7574942,11.7507193 15.4456613,11.6365661 C14.9806961,11.4778654 14.5073782,11.3581439 14.0312761,11.2412065 C12.9955452,10.9906265 11.9625986,10.7289095 10.9268677,10.4783295 C10.1879235,10.276992 9.43763775,10.1198689 8.68,10.0077958 C8.4349884,10.0022274 8.1899768,9.99109049 7.9449652,10.0133643 C7.61203356,10.0600842 7.29664882,10.1914146 7.02895592,10.3948028 C6.80182751,10.5877874 6.61212917,10.8208993 6.46932715,11.0825058 C6.30227378,11.3664965 6.18812065,11.6755452 6.05726218,11.9762413 C5.51433875,13.2801856 4.97141531,14.585058 4.42849188,15.8908585 C4.25030162,16.297355 4.08603248,16.7177726 4.03313225,17.160464 C4.00945959,17.4017654 4.06518055,17.6442004 4.19183295,17.8509513 C4.35597495,18.1013199 4.58499935,18.3024379 4.85447796,18.4328538 C5.47814385,18.7391183 6.15470998,18.9117401 6.82570766,19.0732251 C7.83638051,19.3265893 8.85262181,19.5716009 9.86329466,19.8249652 C10.6066821,20.0031555 11.3472854,20.2091879 12.1073782,20.3038515 C12.547772,20.3745422 12.9985598,20.3421389 13.4243155,20.2091879 C13.7630566,20.0789098 14.0556347,19.8512415 14.2651508,19.5548956 C14.5602784,19.1567517 14.7273318,18.6862181 14.9194432,18.235174 C15.4484455,16.9572158 15.9858005,15.6820418 16.517587,14.4040835 C16.7152668,13.9530394 16.9073782,13.4741531 16.8823202,12.9702088 Z M13.2628306,13.8611601 C13.2823202,13.7135963 13.1765197,13.5883063 13.0540139,13.5242691 C12.8034339,13.3878422 12.5194432,13.3377262 12.2465893,13.2681206 C11.5254756,13.0880742 10.8025058,12.909884 10.0776798,12.7335499 C9.87161575,12.6734812 9.6547422,12.6601644 9.44287703,12.6945708 C9.19786543,12.7641763 9.07535963,13.0119722 8.99183295,13.2291415 C8.5825522,14.2036195 8.18162413,15.1808817 7.76955916,16.1525754 C7.7250116,16.2667285 7.68046404,16.3808817 7.66932715,16.5033875 C7.66932715,16.6425986 7.76677494,16.7651044 7.88649652,16.8235731 C8.06468677,16.9154524 8.25958237,16.9655684 8.44890951,17.0156845 L10.7041299,17.5697448 C10.9658469,17.6309977 11.2414849,17.697819 11.5087703,17.6393503 C11.7342923,17.5669606 11.8484455,17.3358701 11.9319722,17.1326218 L13.0373086,14.4820418 C13.1236195,14.2815777 13.2349884,14.0838979 13.2628306,13.8611601 Z" id="Combined-Shape-Copy" fill="#000" fill-rule="nonzero"/></g></svg>

<svg width="32" height="32" viewBox="0 0 32 32" xmlns="http://www.w3.org/2000/svg"><path d="M16 32C7.163 32 0 24.837 0 16S7.163 0 16 0s16 7.163 16 16-7.163 16-16 16zm11.986-17.331c-.51-.109-1.016-.251-1.532-.365-.476-.112-.949-.248-1.428-.351-.136-.03-.273-.086-.417-.075-.098.025-.176.097-.262.15L19.64 16.98c-.091.062-.18.123-.284.16.056-.215.162-.41.243-.613l.72-1.732c.235-.546.455-1.1.694-1.646.022-.055.05-.114.034-.172-.307-.092-.624-.153-.933-.234-.596-.145-1.192-.298-1.788-.44-.12-.028-.236-.078-.359-.086a.181.181 0 0 0-.056.072l-3.533 8.47a.469.469 0 0 0-.036.161c.195.067.401.1.599.153.701.17 1.4.346 2.099.518.13.03.259.084.395.084.076-.1.106-.226.156-.34.346-.816.68-1.637 1.028-2.453.058-.136.1-.278.172-.404.123-.016.237.037.354.062.818.203 1.64.398 2.456.607.222.06.473.142.598.356.1.15.059.342-.011.496l-.927 2.221c-.047.123-.125.24-.131.376.217.073.443.109.663.17.676.17 1.356.334 2.032.501.134.03.265.081.401.084a.585.585 0 0 0 .08-.14c.416-1.005.836-2.004 1.254-3.006.1-.251.211-.499.264-.763a1.41 1.41 0 0 0-.122-1.053c-.184-.317-.518-.506-.844-.651-.353-.162-.738-.237-1.11-.337a.18.18 0 0 1 .06-.075c1.393-.866 2.79-1.724 4.177-2.592v-.064zM16.882 12.97a1.178 1.178 0 0 0-.534-.905c-.273-.197-.59-.314-.902-.428a16.642 16.642 0 0 0-1.415-.396c-1.035-.25-2.068-.512-3.104-.763a19.278 19.278 0 0 0-2.247-.47c-.245-.006-.49-.017-.735.005a1.966 1.966 0 0 0-.916.382 2.43 2.43 0 0 0-.56.688c-.167.283-.28.593-.412.893l-1.629 3.915c-.178.406-.342.827-.395 1.27-.024.24.032.483.159.69.164.25.393.451.662.582.624.306 1.3.479 1.972.64 1.01.254 2.027.499 3.037.752.744.178 1.484.384 2.244.479.44.07.892.038 1.317-.095.34-.13.632-.358.841-.654.295-.398.462-.869.654-1.32.53-1.278 1.067-2.553 1.599-3.83.197-.452.39-.93.364-1.435zm-3.62.891c.02-.147-.085-.273-.208-.337-.25-.136-.535-.186-.807-.256-.722-.18-1.444-.358-2.17-.534a1.442 1.442 0 0 0-.634-.04c-.245.07-.368.318-.451.535-.41.975-.81 1.952-1.222 2.924-.045.114-.09.228-.1.35 0 .14.097.262.216.32.179.092.374.143.563.193l2.255.554c.262.061.537.128.805.07.225-.073.34-.304.423-.507l1.105-2.651c.087-.2.198-.398.226-.62z"/></svg>
